icons/svg/jsfiddle.svg

﻿<?xml version="1.0" encoding="utf-8"?>
<!DOCTYPE svg PUBLIC "-//W3C//DTD SVG 1.1//EN" "http://www.w3.org/Graphics/SVG/1.1/DTD/svg11.dtd">
<svg xmlns="http://www.w3.org/2000/svg" xmlns:xlink="http://www.w3.org/1999/xlink" version="1.1" baseProfile="full" width="24" height="24" viewBox="0 0 24.00 24.00" enable-background="new 0 0 24.00 24.00" xml:space="preserve">
	<path fill="#050708" fill-opacity="1" fill-rule="evenodd" stroke-linejoin="round" d="M 20.331,10.7937C 21.8978,11.4365 23,12.9575 23,14.7337C 23,17.0902 21.0601,19 18.6674,19L 5.4,19C 2.98334,18.9632 1,17.0116 1,14.6234C 1,13.026 1.87387,11.6336 3.17382,10.8723C 3.08471,10.5927 3.03737,10.2947 3.03737,9.98612C 3.03737,8.3442 4.38911,7.01306 6.05666,7.01306C 6.7523,7.01306 7.3917,7.24754 7.90243,7.63741C 8.95509,5.46582 11.1991,3.96202 13.8057,3.96202C 17.4204,3.96202 20.3505,6.84764 20.3505,10.4072C 20.3505,10.5375 20.3389,10.6651 20.331,10.7937 Z M 9.21519,10.8544C 7.44648,10.8544 6.01266,12.1168 6.01266,13.674C 6.01266,15.2313 7.44648,16.4937 9.21519,16.4937C 10.2522,16.4937 11.1741,16.0597 11.7593,15.3868L 10.7496,14.249C 10.4189,14.6839 9.77295,14.9885 9.21519,14.9885C 8.42619,14.9885 7.78658,14.4 7.78658,13.674C 7.78658,12.9481 8.42619,12.3596 9.21519,12.3596C 9.686,12.3596 10.1237,12.5949 10.563,12.879C 11.0023,13.163 11.7287,14.1748 12.3063,14.8227C 13.7748,16.2884 14.528,16.4171 15.3975,16.4171C 17.1662,16.4171 18.6,15.1547 18.6,13.5975C 18.6,12.0402 17.1662,10.7778 15.3975,10.7778C 14.3605,10.7778 13.4386,11.2118 12.8533,11.8847L 13.8631,13.0225C 14.1938,12.5876 14.8397,12.283 15.3975,12.283C 16.1865,12.283 16.8261,12.8715 16.8261,13.5975C 16.8261,14.3234 16.1865,14.9119 15.3975,14.9119C 14.9267,14.9119 14.4889,14.6766 14.0496,14.3925C 13.6103,14.1085 12.8839,13.0967 12.3063,12.4488C 10.8379,10.9832 10.0846,10.8544 9.21519,10.8544 Z "/>
</svg>

<svg xmlns="http://www.w3.org/2000/svg" version="1.1" baseProfile="full" width="24" height="24" viewBox="0 0 24.00 24.00" xml:space="preserve"><path fill="#050708" fill-opacity="1" fill-rule="evenodd" stroke-linejoin="round" d="M20.33 10.794c1.568.643 2.67 2.163 2.67 3.94C23 17.09 21.06 19 18.667 19H5.4C2.983 18.963 1 17.012 1 14.623c0-1.597.874-2.99 2.174-3.75-.09-.28-.137-.578-.137-.887 0-1.642 1.352-2.973 3.02-2.973.695 0 1.335.235 1.845.624 1.053-2.17 3.297-3.675 5.904-3.675 3.614 0 6.545 2.886 6.545 6.445 0 .13-.01.258-.02.387zm-11.115.06c-1.77 0-3.202 1.263-3.202 2.82s1.433 2.82 3.202 2.82c1.037 0 1.96-.434 2.544-1.107l-1.01-1.138c-.33.434-.977.74-1.535.74-.79-.002-1.428-.59-1.428-1.316 0-.726.64-1.314 1.428-1.314.47 0 .91.235 1.348.52.44.283 1.166 1.295 1.743 1.943 1.47 1.465 2.222 1.594 3.092 1.594 1.768 0 3.202-1.262 3.202-2.82 0-1.557-1.434-2.82-3.203-2.82-1.037 0-1.958.435-2.544 1.108l1.01 1.138c.33-.435.977-.74 1.535-.74.788 0 1.428.588 1.428 1.315 0 .725-.64 1.314-1.428 1.314-.47 0-.91-.235-1.348-.52-.44-.284-1.166-1.295-1.744-1.943-1.468-1.467-2.22-1.596-3.09-1.596z"/></svg>
